Newaita-dark/apps/22/gnome-boxes.svg

<?xml version="1.0" encoding="UTF-8"?>
<svg xmlns="http://www.w3.org/2000/svg" xmlns:xlink="http://www.w3.org/1999/xlink" width="22pt" height="22pt" viewBox="0 0 22 22" version="1.1">
<defs>
<radialGradient id="radial0" gradientUnits="userSpaceOnUse" cx="450.908936" cy="189.579361" fx="450.908936" fy="189.579361" r="21.166656" gradientTransform="matrix(0.000000119742,-0.0537161,-0.0966889,-0.0000000698078,22.650736,43.721791)">
<stop offset="0" style="stop-color:rgb(0%,0%,0%);stop-opacity:0.313725;"/>
<stop offset="0.222222" style="stop-color:rgb(0%,0%,0%);stop-opacity:0.27451;"/>
<stop offset="1" style="stop-color:rgb(0%,0%,0%);stop-opacity:0;"/>
</radialGradient>
<radialGradient id="radial1" gradientUnits="userSpaceOnUse" cx="450.908936" cy="189.579361" fx="450.908936" fy="189.579361" r="21.166656" gradientTransform="matrix(-0.000000119742,0.0537161,0.0966889,0.0000000698078,-13.554817,-5.175142)">
<stop offset="0" style="stop-color:rgb(0%,0%,0%);stop-opacity:0.313725;"/>
<stop offset="0.222222" style="stop-color:rgb(0%,0%,0%);stop-opacity:0.27451;"/>
<stop offset="1" style="stop-color:rgb(0%,0%,0%);stop-opacity:0;"/>
</radialGradient>
<radialGradient id="radial2" gradientUnits="userSpaceOnUse" cx="450.908936" cy="189.579361" fx="450.908936" fy="189.579361" r="21.166656" gradientTransform="matrix(-0.000000119742,-0.0537161,0.0966889,-0.0000000698078,-13.554817,43.721791)">
<stop offset="0" style="stop-color:rgb(0%,0%,0%);stop-opacity:0.313725;"/>
<stop offset="0.222222" style="stop-color:rgb(0%,0%,0%);stop-opacity:0.27451;"/>
<stop offset="1" style="stop-color:rgb(0%,0%,0%);stop-opacity:0;"/>
</radialGradient>
<radialGradient id="radial3" gradientUnits="userSpaceOnUse" cx="450.908936" cy="189.579361" fx="450.908936" fy="189.579361" r="21.166656" gradientTransform="matrix(0.000000119742,0.0537161,-0.0966889,0.0000000698078,22.650734,-5.175142)">
<stop offset="0" style="stop-color:rgb(0%,0%,0%);stop-opacity:0.313725;"/>
<stop offset="0.222222" style="stop-color:rgb(0%,0%,0%);stop-opacity:0.27451;"/>
<stop offset="1" style="stop-color:rgb(0%,0%,0%);stop-opacity:0;"/>
</radialGradient>
<radialGradient id="radial4" gradientUnits="userSpaceOnUse" cx="450.908936" cy="189.579361" fx="450.908936" fy="189.579361" r="21.166656" gradientTransform="matrix(0.000000119742,-0.0537161,-0.0966889,-0.0000000698078,35.385029,43.721791)">
<stop offset="0" style="stop-color:rgb(0%,0%,0%);stop-opacity:0.313725;"/>
<stop offset="0.222222" style="stop-color:rgb(0%,0%,0%);stop-opacity:0.27451;"/>
<stop offset="1" style="stop-color:rgb(0%,0%,0%);stop-opacity:0;"/>
</radialGradient>
<radialGradient id="radial5" gradientUnits="userSpaceOnUse" cx="450.908936" cy="189.579361" fx="450.908936" fy="189.579361" r="21.166656" gradientTransform="matrix(-0.000000119742,0.0537161,0.0966889,0.0000000698078,-0.820523,-5.175142)">
<stop offset="0" style="stop-color:rgb(0%,0%,0%);stop-opacity:0.313725;"/>
<stop offset="0.222222" style="stop-color:rgb(0%,0%,0%);stop-opacity:0.27451;"/>
<stop offset="1" style="stop-color:rgb(0%,0%,0%);stop-opacity:0;"/>
</radialGradient>
<radialGradient id="radial6" gradientUnits="userSpaceOnUse" cx="450.908936" cy="189.579361" fx="450.908936" fy="189.579361" r="21.166656" gradientTransform="matrix(-0.000000119742,-0.0537161,0.0966889,-0.0000000698078,-0.820523,43.721791)">
<stop offset="0" style="stop-color:rgb(0%,0%,0%);stop-opacity:0.313725;"/>
<stop offset="0.222222" style="stop-color:rgb(0%,0%,0%);stop-opacity:0.27451;"/>
<stop offset="1" style="stop-color:rgb(0%,0%,0%);stop-opacity:0;"/>
</radialGradient>
<radialGradient id="radial7" gradientUnits="userSpaceOnUse" cx="450.908936" cy="189.579361" fx="450.908936" fy="189.579361" r="21.166656" gradientTransform="matrix(0.000000119742,0.0537161,-0.0966889,0.0000000698078,35.385027,-5.175142)">
<stop offset="0" style="stop-color:rgb(0%,0%,0%);stop-opacity:0.313725;"/>
<stop offset="0.222222" style="stop-color:rgb(0%,0%,0%);stop-opacity:0.27451;"/>
<stop offset="1" style="stop-color:rgb(0%,0%,0%);stop-opacity:0;"/>
</radialGradient>
<linearGradient id="linear0" gradientUnits="userSpaceOnUse" x1="960.000061" y1="255.118118" x2="960" y2="1615.118164" gradientTransform="matrix(1,0,0,1,0,0)">
<stop offset="0" style="stop-color:rgb(74.117647%,74.117647%,74.117647%);stop-opacity:1;"/>
<stop offset="1" style="stop-color:rgb(87.843137%,87.843137%,87.843137%);stop-opacity:1;"/>
</linearGradient>
<linearGradient id="linear1" gradientUnits="userSpaceOnUse" x1="105.833344" y1="-84" x2="105.833344" y2="-168.666656" gradientTransform="matrix(0.0429729,0,0,0.0429729,0,9.239163)">
<stop offset="0" style="stop-color:rgb(74.117647%,74.117647%,74.117647%);stop-opacity:1;"/>
<stop offset="1" style="stop-color:rgb(87.843137%,87.843137%,87.843137%);stop-opacity:1;"/>
</linearGradient>
<linearGradient id="linear2" gradientUnits="userSpaceOnUse" x1="105.833344" y1="-84" x2="105.833344" y2="-168.666656" gradientTransform="matrix(0.0429729,0,0,0.0429729,12.734262,9.239163)">
<stop offset="0" style="stop-color:rgb(74.117647%,74.117647%,74.117647%);stop-opacity:1;"/>
<stop offset="1" style="stop-color:rgb(87.843137%,87.843137%,87.843137%);stop-opacity:1;"/>
</linearGradient>
<linearGradient id="linear3" gradientUnits="userSpaceOnUse" x1="105.833344" y1="-84" x2="105.833344" y2="-168.666656" gradientTransform="matrix(0.0429729,0,0,0.0429729,12.734262,22.826206)">
<stop offset="0" style="stop-color:rgb(74.117647%,74.117647%,74.117647%);stop-opacity:1;"/>
<stop offset="1" style="stop-color:rgb(87.843137%,87.843137%,87.843137%);stop-opacity:1;"/>
</linearGradient>
<linearGradient id="linear4" gradientUnits="userSpaceOnUse" x1="105.833344" y1="-84" x2="105.833344" y2="-168.666656" gradientTransform="matrix(0.0429729,0,0,0.0429729,0.000954697,22.826206)">
<stop offset="0" style="stop-color:rgb(74.117647%,74.117647%,74.117647%);stop-opacity:1;"/>
<stop offset="1" style="stop-color:rgb(87.843137%,87.843137%,87.843137%);stop-opacity:1;"/>
</linearGradient>
</defs>
<g id="surface1">
<path style=" stroke:none;fill-rule:nonzero;fill:url(#radial0);" d="M 4.546875 19.273438 L 6.367188 19.273438 L 6.367188 18.363281 L 4.546875 18.363281 Z M 4.546875 19.273438 "/>
<path style=" stroke:none;fill-rule:nonzero;fill:url(#radial1);" d="M 4.546875 19.273438 L 2.730469 19.273438 L 2.730469 20.183594 L 4.546875 20.183594 Z M 4.546875 19.273438 "/>
<path style=" stroke:none;fill-rule:nonzero;fill:url(#radial2);" d="M 4.546875 19.273438 L 2.730469 19.273438 L 2.730469 18.363281 L 4.546875 18.363281 Z M 4.546875 19.273438 "/>
<path style=" stroke:none;fill-rule:nonzero;fill:url(#radial3);" d="M 4.546875 19.273438 L 6.367188 19.273438 L 6.367188 20.183594 L 4.546875 20.183594 Z M 4.546875 19.273438 "/>
<path style=" stroke:none;fill-rule:nonzero;fill:url(#radial4);" d="M 17.28125 19.273438 L 19.101562 19.273438 L 19.101562 18.363281 L 17.28125 18.363281 Z M 17.28125 19.273438 "/>
<path style=" stroke:none;fill-rule:nonzero;fill:url(#radial5);" d="M 17.28125 19.273438 L 15.464844 19.273438 L 15.464844 20.183594 L 17.28125 20.183594 Z M 17.28125 19.273438 "/>
<path style=" stroke:none;fill-rule:nonzero;fill:url(#radial6);" d="M 17.28125 19.273438 L 15.464844 19.273438 L 15.464844 18.363281 L 17.28125 18.363281 Z M 17.28125 19.273438 "/>
<path style=" stroke:none;fill-rule:nonzero;fill:url(#radial7);" d="M 17.28125 19.273438 L 19.101562 19.273438 L 19.101562 20.183594 L 17.28125 20.183594 Z M 17.28125 19.273438 "/>
<path style="fill-rule:nonzero;fill:url(#linear0);stroke-width:11.338583;stroke-linecap:round;stroke-linejoin:miter;stroke:rgb(12.941177%,12.941177%,12.941177%);stroke-opacity:1;stroke-miterlimit:4;" d="M 479.954192 255.265544 C 391.315551 255.265544 319.854941 326.382593 319.854941 415.021234 L 319.854941 1454.979243 C 319.854941 1543.617884 391.315551 1615.078494 479.954192 1615.078494 L 1439.862576 1615.078494 C 1528.501217 1615.078494 1599.961827 1543.617884 1599.961827 1454.979243 L 1599.961827 415.021234 C 1599.961827 326.382593 1528.501217 255.265544 1439.862576 255.265544 Z M 560.003817 415.021234 L 1360.156511 415.021234 C 1404.475831 415.021234 1439.862576 450.751539 1439.862576 495.070859 L 1439.862576 1375.273178 C 1439.862576 1419.592499 1404.475831 1454.979243 1360.156511 1454.979243 L 560.003817 1454.979243 C 515.684497 1454.979243 479.954192 1419.592499 479.954192 1375.273178 L 479.954192 495.070859 C 479.954192 450.751539 515.684497 415.021234 560.003817 415.021234 Z M 560.003817 415.021234 " transform="matrix(0.0113699,0,0,0.0113699,0,0)"/>
<path style=" stroke:none;fill-rule:nonzero;fill:url(#linear1);" d="M 4.546875 1.992188 C 5.550781 1.992188 6.367188 2.804688 6.367188 3.808594 C 6.367188 4.816406 5.550781 5.628906 4.546875 5.628906 C 3.542969 5.628906 2.730469 4.816406 2.730469 3.808594 C 2.730469 2.804688 3.542969 1.992188 4.546875 1.992188 Z M 4.546875 1.992188 "/>
<path style=" stroke:none;fill-rule:nonzero;fill:rgb(100%,100%,100%);fill-opacity:0.588235;" d="M 4.546875 1.992188 C 3.539062 1.992188 2.730469 2.800781 2.730469 3.808594 C 2.730469 3.828125 2.730469 3.847656 2.730469 3.867188 C 2.757812 2.886719 3.558594 2.105469 4.546875 2.105469 C 5.535156 2.105469 6.335938 2.886719 6.367188 3.867188 C 6.367188 3.847656 6.367188 3.828125 6.367188 3.808594 C 6.367188 2.800781 5.554688 1.992188 4.546875 1.992188 Z M 4.546875 1.992188 "/>
<path style=" stroke:none;fill-rule:nonzero;fill:rgb(0%,0%,0%);fill-opacity:0.27451;" d="M 4.546875 5.628906 C 3.539062 5.628906 2.730469 4.816406 2.730469 3.808594 C 2.730469 3.792969 2.730469 3.773438 2.730469 3.753906 C 2.757812 4.734375 3.558594 5.515625 4.546875 5.515625 C 5.535156 5.515625 6.335938 4.734375 6.367188 3.753906 C 6.367188 3.773438 6.367188 3.792969 6.367188 3.808594 C 6.367188 4.816406 5.554688 5.628906 4.546875 5.628906 Z M 4.546875 5.628906 "/>
<path style=" stroke:none;fill-rule:nonzero;fill:rgb(12.941177%,12.941177%,12.941177%);fill-opacity:1;" d="M 4.546875 1.925781 C 3.503906 1.925781 2.664062 2.769531 2.664062 3.808594 C 2.664062 4.851562 3.503906 5.695312 4.546875 5.695312 C 5.589844 5.695312 6.429688 4.851562 6.429688 3.808594 C 6.429688 2.769531 5.589844 1.925781 4.546875 1.925781 Z M 4.546875 2.054688 C 5.519531 2.054688 6.300781 2.835938 6.300781 3.808594 C 6.300781 4.785156 5.519531 5.566406 4.546875 5.566406 C 3.574219 5.566406 2.792969 4.785156 2.792969 3.808594 C 2.792969 2.835938 3.574219 2.054688 4.546875 2.054688 Z M 4.546875 2.054688 "/>
<path style=" stroke:none;fill-rule:nonzero;fill:url(#linear2);" d="M 17.28125 1.992188 C 18.285156 1.992188 19.101562 2.804688 19.101562 3.808594 C 19.101562 4.816406 18.285156 5.628906 17.28125 5.628906 C 16.277344 5.628906 15.464844 4.816406 15.464844 3.808594 C 15.464844 2.804688 16.277344 1.992188 17.28125 1.992188 Z M 17.28125 1.992188 "/>
<path style=" stroke:none;fill-rule:nonzero;fill:rgb(100%,100%,100%);fill-opacity:0.588235;" d="M 17.28125 1.992188 C 16.273438 1.992188 15.464844 2.800781 15.464844 3.808594 C 15.464844 3.828125 15.464844 3.847656 15.464844 3.867188 C 15.492188 2.886719 16.292969 2.105469 17.28125 2.105469 C 18.269531 2.105469 19.070312 2.886719 19.101562 3.867188 C 19.101562 3.847656 19.101562 3.828125 19.101562 3.808594 C 19.101562 2.800781 18.289062 1.992188 17.28125 1.992188 Z M 17.28125 1.992188 "/>
<path style=" stroke:none;fill-rule:nonzero;fill:rgb(0%,0%,0%);fill-opacity:0.27451;" d="M 17.28125 5.628906 C 16.273438 5.628906 15.464844 4.816406 15.464844 3.808594 C 15.464844 3.792969 15.464844 3.773438 15.464844 3.753906 C 15.492188 4.734375 16.292969 5.515625 17.28125 5.515625 C 18.269531 5.515625 19.070312 4.734375 19.101562 3.753906 C 19.101562 3.773438 19.101562 3.792969 19.101562 3.808594 C 19.101562 4.816406 18.289062 5.628906 17.28125 5.628906 Z M 17.28125 5.628906 "/>
<path style=" stroke:none;fill-rule:nonzero;fill:rgb(12.941177%,12.941177%,12.941177%);fill-opacity:1;" d="M 17.28125 1.925781 C 16.238281 1.925781 15.398438 2.769531 15.398438 3.808594 C 15.398438 4.851562 16.238281 5.695312 17.28125 5.695312 C 18.324219 5.695312 19.164062 4.851562 19.164062 3.808594 C 19.164062 2.769531 18.324219 1.925781 17.28125 1.925781 Z M 17.28125 2.054688 C 18.253906 2.054688 19.035156 2.835938 19.035156 3.808594 C 19.035156 4.785156 18.253906 5.566406 17.28125 5.566406 C 16.308594 5.566406 15.527344 4.785156 15.527344 3.808594 C 15.527344 2.835938 16.308594 2.054688 17.28125 2.054688 Z M 17.28125 2.054688 "/>
<path style=" stroke:none;fill-rule:nonzero;fill:url(#linear3);" d="M 17.28125 15.578125 C 18.285156 15.578125 19.101562 16.394531 19.101562 17.398438 C 19.101562 18.402344 18.285156 19.214844 17.28125 19.214844 C 16.277344 19.214844 15.464844 18.402344 15.464844 17.398438 C 15.464844 16.394531 16.277344 15.578125 17.28125 15.578125 Z M 17.28125 15.578125 "/>
<path style=" stroke:none;fill-rule:nonzero;fill:rgb(100%,100%,100%);fill-opacity:0.588235;" d="M 17.28125 15.578125 C 16.273438 15.578125 15.464844 16.390625 15.464844 17.398438 C 15.464844 17.417969 15.464844 17.433594 15.464844 17.453125 C 15.492188 16.472656 16.292969 15.691406 17.28125 15.691406 C 18.269531 15.691406 19.070312 16.472656 19.101562 17.453125 C 19.101562 17.433594 19.101562 17.417969 19.101562 17.398438 C 19.101562 16.390625 18.289062 15.578125 17.28125 15.578125 Z M 17.28125 15.578125 "/>
<path style=" stroke:none;fill-rule:nonzero;fill:rgb(0%,0%,0%);fill-opacity:0.27451;" d="M 17.28125 19.214844 C 16.273438 19.214844 15.464844 18.40625 15.464844 17.398438 C 15.464844 17.378906 15.464844 17.359375 15.464844 17.339844 C 15.492188 18.320312 16.292969 19.101562 17.28125 19.101562 C 18.269531 19.101562 19.070312 18.320312 19.101562 17.339844 C 19.101562 17.359375 19.101562 17.378906 19.101562 17.398438 C 19.101562 18.40625 18.289062 19.214844 17.28125 19.214844 Z M 17.28125 19.214844 "/>
<path style=" stroke:none;fill-rule:nonzero;fill:rgb(12.941177%,12.941177%,12.941177%);fill-opacity:1;" d="M 17.28125 15.515625 C 16.238281 15.515625 15.398438 16.355469 15.398438 17.398438 C 15.398438 18.441406 16.238281 19.28125 17.28125 19.28125 C 18.324219 19.28125 19.164062 18.441406 19.164062 17.398438 C 19.164062 16.355469 18.324219 15.515625 17.28125 15.515625 Z M 17.28125 15.644531 C 18.253906 15.644531 19.035156 16.425781 19.035156 17.398438 C 19.035156 18.371094 18.253906 19.152344 17.28125 19.152344 C 16.308594 19.152344 15.527344 18.371094 15.527344 17.398438 C 15.527344 16.425781 16.308594 15.644531 17.28125 15.644531 Z M 17.28125 15.644531 "/>
<path style=" stroke:none;fill-rule:nonzero;fill:url(#linear4);" d="M 4.550781 15.578125 C 5.554688 15.578125 6.367188 16.394531 6.367188 17.398438 C 6.367188 18.402344 5.554688 19.214844 4.550781 19.214844 C 3.542969 19.214844 2.730469 18.402344 2.730469 17.398438 C 2.730469 16.394531 3.542969 15.578125 4.550781 15.578125 Z M 4.550781 15.578125 "/>
<path style=" stroke:none;fill-rule:nonzero;fill:rgb(100%,100%,100%);fill-opacity:0.588235;" d="M 4.550781 15.578125 C 3.542969 15.578125 2.730469 16.390625 2.730469 17.398438 C 2.730469 17.417969 2.730469 17.433594 2.730469 17.453125 C 2.761719 16.472656 3.558594 15.691406 4.550781 15.691406 C 5.539062 15.691406 6.335938 16.472656 6.367188 17.453125 C 6.367188 17.433594 6.367188 17.417969 6.367188 17.398438 C 6.367188 16.390625 5.558594 15.578125 4.550781 15.578125 Z M 4.550781 15.578125 "/>
<path style=" stroke:none;fill-rule:nonzero;fill:rgb(0%,0%,0%);fill-opacity:0.27451;" d="M 4.550781 19.214844 C 3.542969 19.214844 2.730469 18.40625 2.730469 17.398438 C 2.730469 17.378906 2.730469 17.359375 2.730469 17.339844 C 2.761719 18.320312 3.558594 19.101562 4.550781 19.101562 C 5.539062 19.101562 6.335938 18.320312 6.367188 17.339844 C 6.367188 17.359375 6.367188 17.378906 6.367188 17.398438 C 6.367188 18.40625 5.558594 19.214844 4.550781 19.214844 Z M 4.550781 19.214844 "/>
<path style=" stroke:none;fill-rule:nonzero;fill:rgb(12.941177%,12.941177%,12.941177%);fill-opacity:1;" d="M 4.550781 15.515625 C 3.507812 15.515625 2.664062 16.355469 2.664062 17.398438 C 2.664062 18.441406 3.507812 19.28125 4.550781 19.28125 C 5.589844 19.28125 6.433594 18.441406 6.433594 17.398438 C 6.433594 16.355469 5.589844 15.515625 4.550781 15.515625 Z M 4.550781 15.644531 C 5.523438 15.644531 6.304688 16.425781 6.304688 17.398438 C 6.304688 18.371094 5.523438 19.152344 4.550781 19.152344 C 3.574219 19.152344 2.792969 18.371094 2.792969 17.398438 C 2.792969 16.425781 3.574219 15.644531 4.550781 15.644531 Z M 4.550781 15.644531 "/>
</g>
</svg>

<svg xmlns="http://www.w3.org/2000/svg" width="22pt" height="22pt" viewBox="0 0 22 22"><defs><radialGradient id="a" gradientUnits="userSpaceOnUse" cx="450.909" cy="189.579" fx="450.909" fy="189.579" r="21.167" gradientTransform="matrix(0 -.05372 -.09669 0 22.65 43.722)"><stop offset="0" stop-opacity=".314"/><stop offset=".222" stop-opacity=".275"/><stop offset="1" stop-opacity="0"/></radialGradient><radialGradient id="b" gradientUnits="userSpaceOnUse" cx="450.909" cy="189.579" fx="450.909" fy="189.579" r="21.167" gradientTransform="matrix(0 .05372 .09669 0 -13.555 -5.175)"><stop offset="0" stop-opacity=".314"/><stop offset=".222" stop-opacity=".275"/><stop offset="1" stop-opacity="0"/></radialGradient><radialGradient id="c" gradientUnits="userSpaceOnUse" cx="450.909" cy="189.579" fx="450.909" fy="189.579" r="21.167" gradientTransform="matrix(0 -.05372 .09669 0 -13.555 43.722)"><stop offset="0" stop-opacity=".314"/><stop offset=".222" stop-opacity=".275"/><stop offset="1" stop-opacity="0"/></radialGradient><radialGradient id="d" gradientUnits="userSpaceOnUse" cx="450.909" cy="189.579" fx="450.909" fy="189.579" r="21.167" gradientTransform="matrix(0 .05372 -.09669 0 22.65 -5.175)"><stop offset="0" stop-opacity=".314"/><stop offset=".222" stop-opacity=".275"/><stop offset="1" stop-opacity="0"/></radialGradient><radialGradient id="e" gradientUnits="userSpaceOnUse" cx="450.909" cy="189.579" fx="450.909" fy="189.579" r="21.167" gradientTransform="matrix(0 -.05372 -.09669 0 35.385 43.722)"><stop offset="0" stop-opacity=".314"/><stop offset=".222" stop-opacity=".275"/><stop offset="1" stop-opacity="0"/></radialGradient><radialGradient id="f" gradientUnits="userSpaceOnUse" cx="450.909" cy="189.579" fx="450.909" fy="189.579" r="21.167" gradientTransform="matrix(0 .05372 .09669 0 -.82 -5.175)"><stop offset="0" stop-opacity=".314"/><stop offset=".222" stop-opacity=".275"/><stop offset="1" stop-opacity="0"/></radialGradient><radialGradient id="g" gradientUnits="userSpaceOnUse" cx="450.909" cy="189.579" fx="450.909" fy="189.579" r="21.167" gradientTransform="matrix(0 -.05372 .09669 0 -.82 43.722)"><stop offset="0" stop-opacity=".314"/><stop offset=".222" stop-opacity=".275"/><stop offset="1" stop-opacity="0"/></radialGradient><radialGradient id="h" gradientUnits="userSpaceOnUse" cx="450.909" cy="189.579" fx="450.909" fy="189.579" r="21.167" gradientTransform="matrix(0 .05372 -.09669 0 35.385 -5.175)"><stop offset="0" stop-opacity=".314"/><stop offset=".222" stop-opacity=".275"/><stop offset="1" stop-opacity="0"/></radialGradient><linearGradient id="i" gradientUnits="userSpaceOnUse" x1="960" y1="255.118" x2="960" y2="1615.118"><stop offset="0" stop-color="#bdbdbd"/><stop offset="1" stop-color="#e0e0e0"/></linearGradient><linearGradient id="j" gradientUnits="userSpaceOnUse" x1="105.833" y1="-84" x2="105.833" y2="-168.667" gradientTransform="matrix(.04297 0 0 .04297 0 9.24)"><stop offset="0" stop-color="#bdbdbd"/><stop offset="1" stop-color="#e0e0e0"/></linearGradient><linearGradient id="k" gradientUnits="userSpaceOnUse" x1="105.833" y1="-84" x2="105.833" y2="-168.667" gradientTransform="matrix(.04297 0 0 .04297 12.734 9.24)"><stop offset="0" stop-color="#bdbdbd"/><stop offset="1" stop-color="#e0e0e0"/></linearGradient><linearGradient id="l" gradientUnits="userSpaceOnUse" x1="105.833" y1="-84" x2="105.833" y2="-168.667" gradientTransform="matrix(.04297 0 0 .04297 12.734 22.826)"><stop offset="0" stop-color="#bdbdbd"/><stop offset="1" stop-color="#e0e0e0"/></linearGradient><linearGradient id="m" gradientUnits="userSpaceOnUse" x1="105.833" y1="-84" x2="105.833" y2="-168.667" gradientTransform="matrix(.04297 0 0 .04297 .001 22.826)"><stop offset="0" stop-color="#bdbdbd"/><stop offset="1" stop-color="#e0e0e0"/></linearGradient></defs><path d="M4.547 19.273h1.82v-.91h-1.82zm0 0" fill="url(#a)"/><path d="M4.547 19.273H2.73v.91h1.817zm0 0" fill="url(#b)"/><path d="M4.547 19.273H2.73v-.91h1.817zm0 0" fill="url(#c)"/><path d="M4.547 19.273h1.82v.91h-1.82zm0 0" fill="url(#d)"/><path d="M17.281 19.273h1.82v-.91h-1.82zm0 0" fill="url(#e)"/><path d="M17.281 19.273h-1.816v.91h1.816zm0 0" fill="url(#f)"/><path d="M17.281 19.273h-1.816v-.91h1.816zm0 0" fill="url(#g)"/><path d="M17.281 19.273h1.82v.91h-1.82zm0 0" fill="url(#h)"/><path d="M479.954 255.266c-88.638 0-160.1 71.117-160.1 159.755V1454.98c0 88.639 71.462 160.1 160.1 160.1h959.909c88.638 0 160.099-71.461 160.099-160.1V415.021c0-88.638-71.46-159.755-160.1-159.755zm80.05 159.755h800.153c44.319 0 79.706 35.73 79.706 80.05v880.202c0 44.32-35.387 79.706-79.706 79.706H560.004c-44.32 0-80.05-35.387-80.05-79.706V495.071c0-44.32 35.73-80.05 80.05-80.05zm0 0" transform="rotate(.24) scale(.01137)" fill="url(#i)" stroke-width="11.339" stroke-linecap="round" stroke="#212121"/><path d="M4.547 1.992A1.819 1.819 0 1 1 4.55 5.63a1.819 1.819 0 0 1-.003-3.638zm0 0" fill="url(#j)"/><path d="M4.547 1.992A1.81 1.81 0 0 0 2.73 3.81v.058a1.812 1.812 0 0 1 1.817-1.762c.988 0 1.789.782 1.82 1.762V3.81a1.814 1.814 0 0 0-1.82-1.817zm0 0" fill="#fff" fill-opacity=".588"/><path d="M4.547 5.629a1.814 1.814 0 0 1-1.817-1.82v-.055c.028.98.829 1.762 1.817 1.762s1.789-.782 1.82-1.762v.055c0 1.007-.812 1.82-1.82 1.82zm0 0" fill-opacity=".275"/><path d="M4.547 1.926a1.881 1.881 0 0 0-1.883 1.883 1.882 1.882 0 1 0 3.766 0c0-1.04-.84-1.883-1.883-1.883zm0 .129c.973 0 1.754.78 1.754 1.754a1.75 1.75 0 0 1-1.754 1.757A1.75 1.75 0 0 1 2.793 3.81c0-.973.781-1.754 1.754-1.754zm0 0" fill="#212121"/><path d="M17.281 1.992a1.819 1.819 0 1 1 .003 3.638 1.819 1.819 0 0 1-.003-3.638zm0 0" fill="url(#k)"/><path d="M17.281 1.992a1.81 1.81 0 0 0-1.816 1.817v.058a1.812 1.812 0 0 1 1.816-1.762c.989 0 1.79.782 1.82 1.762V3.81a1.814 1.814 0 0 0-1.82-1.817zm0 0" fill="#fff" fill-opacity=".588"/><path d="M17.281 5.629a1.814 1.814 0 0 1-1.816-1.82v-.055c.027.98.828 1.762 1.816 1.762.989 0 1.79-.782 1.82-1.762v.055c0 1.007-.812 1.82-1.82 1.82zm0 0" fill-opacity=".275"/><path d="M17.281 1.926a1.881 1.881 0 0 0-1.883 1.883 1.882 1.882 0 1 0 3.766 0c0-1.04-.84-1.883-1.883-1.883zm0 .129c.973 0 1.754.78 1.754 1.754a1.75 1.75 0 0 1-1.754 1.757 1.75 1.75 0 0 1-1.754-1.757c0-.973.782-1.754 1.754-1.754zm0 0" fill="#212121"/><path d="M17.281 15.578a1.819 1.819 0 1 1 0 0zm0 0" fill="url(#l)"/><path d="M17.281 15.578a1.814 1.814 0 0 0-1.816 1.82v.055a1.812 1.812 0 0 1 1.816-1.762c.989 0 1.79.782 1.82 1.762v-.055c0-1.007-.812-1.82-1.82-1.82zm0 0" fill="#fff" fill-opacity=".588"/><path d="M17.281 19.215a1.81 1.81 0 0 1-1.816-1.817v-.058c.027.98.828 1.762 1.816 1.762.989 0 1.79-.782 1.82-1.762v.058a1.814 1.814 0 0 1-1.82 1.817zm0 0" fill-opacity=".275"/><path d="M17.281 15.516c-1.043 0-1.883.84-1.883 1.882 0 1.043.84 1.883 1.883 1.883 1.043 0 1.883-.84 1.883-1.883 0-1.043-.84-1.882-1.883-1.882zm0 .129c.973 0 1.754.78 1.754 1.753 0 .973-.781 1.754-1.754 1.754a1.749 1.749 0 0 1-1.754-1.754c0-.972.782-1.753 1.754-1.753zm0 0" fill="#212121"/><path d="M4.55 15.578a1.819 1.819 0 1 1-.004 3.638 1.819 1.819 0 0 1 .005-3.638zm0 0" fill="url(#m)"/><path d="M4.55 15.578c-1.007 0-1.82.813-1.82 1.82v.055a1.816 1.816 0 0 1 1.82-1.762c.99 0 1.786.782 1.817 1.762v-.055c0-1.007-.808-1.82-1.816-1.82zm0 0" fill="#fff" fill-opacity=".588"/><path d="M4.55 19.215a1.814 1.814 0 0 1-1.82-1.817v-.058c.032.98.829 1.762 1.82 1.762.99 0 1.786-.782 1.817-1.762v.058a1.81 1.81 0 0 1-1.816 1.817zm0 0" fill-opacity=".275"/><path d="M4.55 15.516a1.882 1.882 0 1 0 0 3.765c1.04 0 1.884-.84 1.884-1.883a1.881 1.881 0 0 0-1.883-1.882zm0 .129c.973 0 1.755.78 1.755 1.753 0 .973-.782 1.754-1.754 1.754a1.75 1.75 0 0 1-1.758-1.754 1.75 1.75 0 0 1 1.758-1.753zm0 0" fill="#212121"/></svg>
